X: 4
T: Missa Ave Maria / Sanctus
N: Derived from Fva1001d-Missa_Ave_Maria-Sanctus.krn
C: Antoine de F\'evin
%%abc-version 2.0
%%abcx-abcm2ps-target-version 5.9.1 (29 Sep 2008)
%%abc-creator hum2abc beta
%%abcx-conversion-date 2019/02/16 20:34:23
%%abc-edited-by Jesse Rodin
%%abc-edited-by Richard Freedman (CRIM)
%%abcx-initial-encoding-date 2016/03/29/
%%humdrum-veritas 3697654160
%%humdrum-veritas-data 3096585926
%%linebreak <none>
%%barnumbers 0
L: 1/4
M: 2/1
Q: 1/2=120
%%staves [1 2 3 4]
V: 1 clef=treble
V: 2 clef=treble-8
V: 3 clef=treble-8
V: 4 clef=bass
K: C
[V:1] z8 | 
[V:2] G4c4- | 
[V:3] z8 | 
[V:4] z8 | 
[V:1] z8 | 
[V:2] c4c4 | 
[V:3] z8 | 
[V:4] z8 | 
[V:1] z4G4 | 
[V:2] d4e4- | 
[V:3] z8 | 
[V:4] z8 | 
[V:1] c8 | 
[V:2] e2dcf4 | 
[V:3] z8 | 
[V:4] z8 | 
[V:1] c4d4 | 
[V:2] e2f4ed | 
[V:3] z8 | 
[V:4] z8 | 
[V:1] e6dc | 
[V:2] c4z2f2- | 
[V:3] z8 | 
[V:4] z8 | 
[V:1] f4e2f2- | 
[V:2] f2d2e2d2 | 
[V:3] z8 | 
[V:4] z8 | 
[V:1] f2edc2f2- | 
[V:2] f4e2d2- | 
[V:3] z8 | 
[V:4] z8 | 
[V:1] f2d2e2d2- | 
[V:2] d2cBc2d2 | 
[V:3] z8 | 
[V:4] z8 | 
[V:1] d2cBc2d2 | 
[V:2] G4z2d2 | 
[V:3] z8 | 
[V:4] z8 | 
[V:1] G4z2G2 | 
[V:2] e3fg4 | 
[V:3] z8 | 
[V:4] z8 | 
[V:1] A2B2c3B | 
[V:2] z2G2A3B | 
[V:3] z8 | 
[V:4] z8 | 
[V:1] G2B2c2d2- | 
[V:2] c2d2e2f2- | 
[V:3] z8 | 
[V:4] z8 | 
[V:1] dcc4B2 | 
[V:2] fedcd4 | 
[V:3] z4G4 | 
[V:4] z8 | 
[V:1] c8 | 
[V:2] z2c3BA2- | 
[V:3] c8 | 
[V:4] z4z2F,2- | 
[V:1] z8 | 
[V:2] A2G2A2F2 | 
[V:3] c4d4 | 
[V:4] F,2E,2F,2D,2 | 
[V:1] z8 | 
[V:2] G4A4 | 
[V:3] e6d2 | 
[V:4] C,2G,4F,2 | 
[V:1] z8 | 
[V:2] G2c4B2 | 
[V:3] e4f4 | 
[V:4] G,2E,2D,4 | 
[V:1] z8 | 
[V:2] c2A2G4 | 
[V:3] e4g3f | 
[V:4] z4z2C2- | 
[V:1] G4A4 | 
[V:2] z2g4f2 | 
[V:3] e2d2e2c2 | 
[V:4] C2B,2C2A,2 | 
[V:1] B3cd2e2- | 
[V:2] g2G4A2 | 
[V:3] d3cB2A2 | 
[V:4] G,2D4C2 | 
[V:1] e2d2f2e2- | 
[V:2] B2G2c3d | 
[V:3] G4z4 | 
[V:4] D2B,2A,4 | 
[V:1] e2dcB2d2- | 
[V:2] e2f2g3f | 
[V:3] z4G4- | 
[V:4] z8 | 
[V:1] d2c2d2cB | 
[V:2] g2e2d4 | 
[V:3] G2A2B4 | 
[V:4] z4z2G,2- | 
[V:1] A4G4 | 
[V:2] z8 | 
[V:3] c2d4c2 | 
[V:4] G,2F,2G,2E,2 | 
[V:1] z8 | 
[V:2] z8 | 
[V:3] d2e2f2e2- | 
[V:4] D,2A,4G,2 | 
[V:1] z8 | 
[V:2] z8 | 
[V:3] e2d2e3d | 
[V:4] A,2F,2E,2G,2- | 
[V:1] z8 | 
[V:2] z8 | 
[V:3] Bcd4c2- | 
[V:4] G,2F,2G,2E,2 | 
[V:1] z8 | 
[V:2] z4z2c2- | 
[V:3] c2B2c4 | 
[V:4] D,4C,3D, | 
[V:1] z2G4F2 | 
[V:2] c2B2c2A2 | 
[V:3] z8 | 
[V:4] E,F,G,2C,2D,2 | 
[V:1] G2E2D2d2- | 
[V:2] G2g4f2 | 
[V:3] z8 | 
[V:4] G,3A,B,CD2 | 
[V:1] d2^c2d3=c | 
[V:2] g2e2d4- | 
[V:3] z4z2f2- | 
[V:4] G,2A,2D,3E, | 
[V:1] A2c2d2f2 | 
[V:2] d2c2A2_B2 | 
[V:3] f2e2f2d2 | 
[V:4] F,G,A,2D,2_B,,2 | 
[V:1] e3dBcd2- | 
[V:2] G3ABGA2 | 
[V:3] c2g4^f2 | 
[V:4] C,D,E,F,G,2D,2 | 
[V:1] dcc4B2 | 
[V:2] G2g3fd2 | 
[V:3] g2e2d4 | 
[V:4] E,2C,2G,4 | 
[V:1] c8- | 
[V:2] e2c2g4 | 
[V:3] c8- | 
[V:4] C,8- | 
[V:1] c8 ||  
[V:2] g8 ||  
[V:3] c8 ||  
[V:4] C,8 ||  
[V:1]  [K:C] [K:clef=treble][M:2/1]z8 | 
[V:2]  [K:C] [K:clef=treble-8][M:2/1]z8 | 
[V:3]  [K:C] [K:clef=treble-8][M:2/1]c8 | 
[V:4]  [K:C] [K:clef=bass][M:2/1]z8 | 
[V:1] z8 | 
[V:2] z8 | 
[V:3] c4g4- | 
[V:4] z4C,4- | 
[V:1] z8 | 
[V:2] z8 | 
[V:3] g2f2e4 | 
[V:4] C,4G,4- | 
[V:1] z8 | 
[V:2] z8 | 
[V:3] d3cd2e2- | 
[V:4] G,8- | 
[V:1] z8 | 
[V:2] z8 | 
[V:3] e2dcB2d2- | 
[V:4] G,4G,4 | 
[V:1] z8 | 
[V:2] z8 | 
[V:3] d2cBA4 | 
[V:4] F,4F,4 | 
[V:1] z8 | 
[V:2] z8 | 
[V:3] G8 | 
[V:4] z2G,3F,G,2 | 
[V:1] z8 | 
[V:2] z8 | 
[V:3] c4d4 | 
[V:4] E,2F,4E,D, | 
[V:1] z8 | 
[V:2] z8 | 
[V:3] e6dc | 
[V:4] C,8 | 
[V:1] z8 | 
[V:2] z8 | 
[V:3] d2e2f3g | 
[V:4] z2G,2A,2B,2 | 
[V:1] z8 | 
[V:2] z8 | 
[V:3] e2g3fe2- | 
[V:4] C4B,2G,2 | 
[V:1] z8 | 
[V:2] z8 | 
[V:3] e2dcd2B2 | 
[V:4] A,4G,4 | 
[V:1] z8 | 
[V:2] z8 | 
[V:3] c2d3cBA | 
[V:4] E,2F,2G,3F, | 
[V:1] z8 | 
[V:2] z8 | 
[V:3] G2c2d2e2- | 
[V:4] E,D,C,2F,2G,2- | 
[V:1] z8 | 
[V:2] z8 | 
[V:3] edc4B2 | 
[V:4] G,F,E,2D,4 | 
[V:1] z8 | 
[V:2] z8 | 
[V:3] c8- | 
[V:4] C,4z2C,2 | 
[V:1] z8 | 
[V:2] z8 | 
[V:3] c8 | 
[V:4] F,3E,F,G,A,2- | 
[V:1] z8 | 
[V:2] z8 | 
[V:3] z4G4 | 
[V:4] A,G,C4B,2 | 
[V:1] z8 | 
[V:2] z8 | 
[V:3] c3Bcde2- | 
[V:4] C4z2C,2 | 
[V:1] z8 | 
[V:2] z8 | 
[V:3] edg4^f2 | 
[V:4] G,4A,4 | 
[V:1] z8 | 
[V:2] z8 | 
[V:3] g8 | 
[V:4] G,3A,B,2C2- | 
[V:1] z8 | 
[V:2] z8 | 
[V:3] z2g4fe | 
[V:4] C2B,A,B,2C2 | 
[V:1] z8 | 
[V:2] z8 | 
[V:3] f3ge2d2 | 
[V:4] A,2G,2z2G,2 | 
[V:1] z8 | 
[V:2] z8 | 
[V:3] z2d2e2f2 | 
[V:4] A,2B,2C3B, | 
[V:1] z8 | 
[V:2] z8 | 
[V:3] g3fe2d2 | 
[V:4] G,2C4B,2 | 
[V:1] z8 | 
[V:2] z8 | 
[V:3] e2dcdef2- | 
[V:4] A,4G,2A,2- | 
[V:1] z8 | 
[V:2] z8 | 
[V:3] fee4d2 | 
[V:4] A,G,E,2F,4 | 
[V:1] z8 | 
[V:2] z8 | 
[V:3] e8 | 
[V:4] E,4z2E,2- | 
[V:1] z8 | 
[V:2] z8 | 
[V:3] z2B3cd2- | 
[V:4] E,F,G,4F,E, | 
[V:1] z8 | 
[V:2] z8 | 
[V:3] d2cBc2d2 | 
[V:4] F,2G,2C,2G,2- | 
[V:1] z8 | 
[V:2] z8 | 
[V:3] G2d2e2g2- | 
[V:4] G,A,B,A,/B,/C4 | 
[V:1] z8 | 
[V:2] z8 | 
[V:3] gfe4dc | 
[V:4] B,2C2A,4 | 
[V:1] z8 | 
[V:2] z8 | 
[V:3] B3cded2- | 
[V:4] G,8- | 
[V:1] z8 | 
[V:2] z8 | 
[V:3] dcBAGABc | 
[V:4] G,8 | 
[V:1] z8 | 
[V:2] z8 | 
[V:3] defe/f/e2d2- | 
[V:4] F,4G,2F,E, | 
[V:1] z8 | 
[V:2] z8 | 
[V:3] d2c4B2 | 
[V:4] F,E,D,C,D,4 | 
[V:1] z8 ||  
[V:2] z8 ||  
[V:3] c8 ||  
[V:4] C,8 ||  
[V:1]  [K:C] [K:clef=treble][M:3/1]c4c4c4 | 
[V:2]  [K:C] [K:clef=treble-8][M:3/1]e8f4 | 
[V:3]  [K:C] [K:clef=treble-8][M:3/1]c4c4c4 | 
[V:4]  [K:C] [K:clef=bass][M:3/1]C6B,2A,4 | 
[V:1] B3cdcd3cBA | 
[V:2] g4G4A4 | 
[V:3] d8d4 | 
[V:4] G,6F,E,F,4 | 
[V:1] G8z4 | 
[V:2] B4G4c4- | 
[V:3] e8e4 | 
[V:4] E,6C,2C,4 | 
[V:1] G4G4G4 | 
[V:2] c2d2e2c2d4 | 
[V:3] c8z4 | 
[V:4] z4C4B,4 | 
[V:1] A8A4 | 
[V:2] e8f4 | 
[V:3] c4c4c4 | 
[V:4] A,8A,4 | 
[V:1] B8B4 | 
[V:2] g6fed4 | 
[V:3] d8d4 | 
[V:4] G,6A,2B,2G,2 | 
[V:1] G8G4 | 
[V:2] c2e4dcB4 | 
[V:3] e8e4 | 
[V:4] C6B,2G,4 | 
[V:1] c6B2A4 | 
[V:2] A8z4 | 
[V:3] c8c4 | 
[V:4] A,6G,2F,2E,2 | 
[V:1] d6cBA4 | 
[V:2] A4A4A4 | 
[V:3] f8f4 | 
[V:4] D,6E,2F,4 | 
[V:1] G3AB2c2d4 | 
[V:2] B6A2B4 | 
[V:3] d8d4 | 
[V:4] G,6F,E,D,4 | 
[V:1] e6d2c2B2 | 
[V:2] c4g6f2 | 
[V:3] g6f2e2d2 | 
[V:4] C,6D,2E,4 | 
[V:1] A6B2c4 | 
[V:2] f8e4 | 
[V:3] c8c4 | 
[V:4] F,6G,2A,4 | 
[V:1] d8c4 | 
[V:2] d8e4 | 
[V:3] f8e4 | 
[V:4] D,8A,4- | 
[V:1] A4B4G4 | 
[V:2] c4d4B4 | 
[V:3] f4g4e4 | 
[V:4] A,4G,8 | 
[V:1] A2c4BAB4 | 
[V:2] c4g8 | 
[V:3] f4d8 | 
[V:4] F,4G,8 | 
[V:1] c6d2e4 | 
[V:2] e8e4 | 
[V:3] c8c4 | 
[V:4] C,8C,4 | 
[V:1] A2d3cBAG4 | 
[V:2] d8g4 | 
[V:3] f8e4 | 
[V:4] D,4B,,4C,4 | 
[V:1] d4e6d2 | 
[V:2] f4e4g4 | 
[V:3] f4g4e4 | 
[V:4] D,4C,4C4 | 
[V:1] c6BAB4 | 
[V:2] a4g8 | 
[V:3] f4d8 | 
[V:4] F,4G,8 | 
[V:1] c12 ||  
[V:2] g12 ||  
[V:3] c12 ||  
[V:4] C,12 ||  
[V:1]  [K:C] [K:clef=treble][M:2/1]d6cd | 
[V:2]  [K:C] [K:clef=treble-8][M:2/1]g8- | 
[V:3]  [K:C] [K:clef=treble-8][M:2/1]z8 | 
[V:4]  [K:C] [K:clef=bass][M:2/1]z8 | 
[V:1] e2d2B2d2- | 
[V:2] g8 | 
[V:3] z8 | 
[V:4] z8 | 
[V:1] d2cBA3B | 
[V:2] g4f4 | 
[V:3] z8 | 
[V:4] z8 | 
[V:1] c2B3AGF | 
[V:2] e4g4- | 
[V:3] z8 | 
[V:4] z8 | 
[V:1] E4z2e2- | 
[V:2] g4g4 | 
[V:3] z8 | 
[V:4] z8 | 
[V:1] e2d2c2B2- | 
[V:2] f4e4 | 
[V:3] z8 | 
[V:4] z8 | 
[V:1] B2d4c2 | 
[V:2] g4f2e2 | 
[V:3] z8 | 
[V:4] z8 | 
[V:1] B2A4c2- | 
[V:2] d3efga2- | 
[V:3] z8 | 
[V:4] z8 | 
[V:1] c2B2A4 | 
[V:2] agg4^f2 | 
[V:3] z8 | 
[V:4] z8 | 
[V:1] G8 | 
[V:2] g4z4 | 
[V:3] z8 | 
[V:4] z8 | 
[V:1] z8 | 
[V:2] g6fg | 
[V:3] z8 | 
[V:4] C8- | 
[V:1] z8 | 
[V:2] a2g2e2g2- | 
[V:3] z8 | 
[V:4] C8 | 
[V:1] z8 | 
[V:2] g2fed3e | 
[V:3] z8 | 
[V:4] C4B,4 | 
[V:1] z8 | 
[V:2] f2e3dcB | 
[V:3] z8 | 
[V:4] A,4C4- | 
[V:1] z8 | 
[V:2] A4z2a2- | 
[V:3] z8 | 
[V:4] C4C4 | 
[V:1] z8 | 
[V:2] a2g2f2e2- | 
[V:3] z8 | 
[V:4] B,4A,4 | 
[V:1] z8 | 
[V:2] e2g4f2 | 
[V:3] z8 | 
[V:4] C4B,2A,2 | 
[V:1] z8 | 
[V:2] e2d4f2- | 
[V:3] z8 | 
[V:4] G,3A,B,CD2- | 
[V:1] z8 | 
[V:2] f2e2d4 | 
[V:3] z8 | 
[V:4] DCC4B,2 | 
[V:1] z4z2e2- | 
[V:2] c4z4 | 
[V:3] z8 | 
[V:4] C3A,B,2C2 | 
[V:1] e2d2c2B2- | 
[V:2] z8 | 
[V:3] z8 | 
[V:4] A,2B,2C2D2 | 
[V:1] B2d4c2 | 
[V:2] g4f2e2 | 
[V:3] z8 | 
[V:4] G,4z4 | 
[V:1] B2A4c2- | 
[V:2] d4f4 | 
[V:3] z8 | 
[V:4] z4z2A,2- | 
[V:1] c2B2A2G2- | 
[V:2] e3dd2e2- | 
[V:3] z8 | 
[V:4] A,2G,2F,2E,2- | 
[V:1] G2FED4 | 
[V:2] e2dcBcA2 | 
[V:3] z8 | 
[V:4] E,2G,4F,2 | 
[V:1] z8 | 
[V:2] GABcded2- | 
[V:3] z8 | 
[V:4] E,2D,4F,2- | 
[V:1] z4d4 | 
[V:2] dcc4B2 | 
[V:3] z8 | 
[V:4] F,2E,2D,4 | 
[V:1] e8- | 
[V:2] c8 | 
[V:3] z8 | 
[V:4] z2C,3D,E,F, | 
[V:1] e8 | 
[V:2] z8 | 
[V:3] z8 | 
[V:4] G,2C,2G,3A, | 
[V:1] d3efde2- | 
[V:2] z8 | 
[V:3] z8 | 
[V:4] B,CD2B,2C2- | 
[V:1] e2dcB3A | 
[V:2] z4z2G2- | 
[V:3] z8 | 
[V:4] C2B,A,G,4- | 
[V:1] Bcd4cB | 
[V:2] GABcd2G2 | 
[V:3] z8 | 
[V:4] G,4z4 | 
[V:1] AGFED4 | 
[V:2] d3efga2 | 
[V:3] z8 | 
[V:4] z8 | 
[V:1] d4e4 | 
[V:2] f2g4fe | 
[V:3] z8 | 
[V:4] z8 | 
[V:1] f4e2f2- | 
[V:2] d4a4- | 
[V:3] z8 | 
[V:4] z2D2C2D2- | 
[V:1] f2edc3d | 
[V:2] a4a4 | 
[V:3] z8 | 
[V:4] D2CB,A,3B, | 
[V:1] e2A3Bcd | 
[V:2] g2f2a4 | 
[V:3] z8 | 
[V:4] C2D3CA,B, | 
[V:1] e2d4^c2 | 
[V:2] g2f2e4 | 
[V:3] z8 | 
[V:4] C2D2A,4 | 
[V:1] d3cdBc2- | 
[V:2] d3efga2- | 
[V:3] z8 | 
[V:4] z2_B,3A,F,2 | 
[V:1] cBAGA4 | 
[V:2] agg4^f2 | 
[V:3] z8 | 
[V:4] G,4D,4 | 
[V:1] G8 | 
[V:2] g8 | 
[V:3] z8 | 
[V:4] G,4z4 | 
[V:1] z8 | 
[V:2] z2g3ef2 | 
[V:3] z8 | 
[V:4] C4B,2A,2 | 
[V:1] z8 | 
[V:2] e2g3fd2- | 
[V:3] z8 | 
[V:4] C3B,G,4 | 
[V:1] z8 | 
[V:2] dc/B/c2B2d2- | 
[V:3] z8 | 
[V:4] F,2E,2G,3F, | 
[V:1] z8 | 
[V:2] dcA2c3B | 
[V:3] z8 | 
[V:4] D,2F,3E,C,2- | 
[V:1] z8 | 
[V:2] G3ABcde | 
[V:3] z8 | 
[V:4] C,D,E,F,G,3F,/E,/ | 
[V:1] z2g3ef2 | 
[V:2] dcc4B2 | 
[V:3] z8 | 
[V:4] F,E,D,C,D,4 | 
[V:1] e2g3fd2- | 
[V:2] c4g4 | 
[V:3] z8 | 
[V:4] C,4z2G,2 | 
[V:1] dBc2B2d2- | 
[V:2] f2e2g3f | 
[V:3] z8 | 
[V:4] A,4G,2B,2- | 
[V:1] dcA2c3B | 
[V:2] d2f3ec2- | 
[V:3] z8 | 
[V:4] B,A,F,3G,A,B, | 
[V:1] G3ABcde | 
[V:2] cdefg3f/e/ | 
[V:3] z8 | 
[V:4] C4B,2G,2 | 
[V:1] dcc4B2 | 
[V:2] fedcd4 | 
[V:3] z8 | 
[V:4] A,4G,4 | 
[V:1] c8 ||  
[V:2] c8 ||  
[V:3] z8 ||  
[V:4] C,8 ||  



